lib/preview_tmp/nrk-logo-preview-nrk-nyheter-on-dark.svg

<svg width="120" height="24" viewBox="0 0 120 24" fill="none" xmlns="http://www.w3.org/2000/svg">
<path d="M0 18.9967V4.99794H4.59339V18.9967H0ZM10.8428 7.22591L13.4844 18.9967H8.45737L5.30307 4.99794H8.12254C8.76907 4.98954 9.39641 5.21745 9.88691 5.63878C10.3782 6.04244 10.7158 6.60281 10.8428 7.22591ZM14.1744 18.9967V4.99794H18.7678V18.9967H14.1744ZM22.2372 10.3214C21.7422 10.3263 21.2552 10.1968 20.828 9.94679C20.4064 9.70314 20.0563 9.35295 19.8127 8.93136C19.5624 8.50405 19.4329 8.01688 19.4378 7.5217C19.4321 7.02953 19.5618 6.54527 19.8127 6.12183C20.0589 5.70482 20.4086 5.35844 20.828 5.11627C21.2553 4.86658 21.7423 4.7371 22.2372 4.74161C22.7292 4.73631 23.2133 4.86591 23.6369 5.11627C24.0521 5.36056 24.3981 5.70665 24.6424 6.12183C24.893 6.54539 25.0226 7.02957 25.0172 7.5217C25.0218 8.01685 24.8923 8.50393 24.6424 8.93136C24.4007 9.3511 24.0542 9.70099 23.6369 9.94679C23.2133 10.1976 22.7289 10.3273 22.2366 10.3214H22.2372ZM25.7269 18.9967V4.99794H30.3207V18.9967H25.7269ZM36.136 12.6479C36.1489 12.6615 36.2475 12.8225 36.4317 13.131C36.6159 13.4394 36.8558 13.8338 37.1513 14.314C37.447 14.794 37.759 15.3033 38.0874 15.842C38.4157 16.3807 38.7247 16.8901 39.0143 17.3701C39.3028 17.8501 39.6313 18.3922 40 18.9967H34.9531C34.6375 18.484 34.3515 18.0207 34.0952 17.6067C33.8389 17.1926 33.5665 16.7457 33.2778 16.2659C32.9884 15.7866 32.7024 15.32 32.4196 14.866C32.1368 14.4121 31.8938 14.0145 31.6905 13.6732C31.4863 13.3317 31.3449 13.1016 31.2663 12.9831C31.0713 12.689 30.9559 12.3493 30.9315 11.9973C30.951 11.6594 31.0597 11.3328 31.2466 11.0506C31.3254 10.9192 31.47 10.6858 31.6803 10.3506C31.8906 10.0155 32.137 9.61789 32.4196 9.15784C32.7021 8.69779 32.9882 8.22787 33.2778 7.7481C33.5674 7.26833 33.8398 6.8181 34.0952 6.39749C34.3519 5.97731 34.6379 5.51068 34.9531 4.99761H40L36.0962 11.3661C35.9754 11.5552 35.9073 11.7731 35.8991 11.9973C35.9121 12.2327 35.9942 12.459 36.1353 12.6479H36.136Z" fill="white"/>
<path d="M55.3616 15.6456L46.9387 4.98385H45.3334V18.9977H47.1964V8.33007L55.6394 18.9977H57.2447V4.98385H55.3619L55.3616 15.6456Z" fill="#9FDAF5"/>
<path d="M67.0945 9.03014L67.0791 16.422C66.9347 16.5058 66.7907 16.5864 66.6496 16.6588C66.4088 16.7823 66.1606 16.891 65.9064 16.9841C65.6657 17.0737 65.4168 17.1398 65.1632 17.1815C64.9044 17.2221 64.6427 17.242 64.3807 17.2408C63.9752 17.2569 63.5724 17.1684 63.2114 16.9838C62.8984 16.8032 62.6572 16.5212 62.5277 16.1848C62.3633 15.7533 62.2857 15.2937 62.2994 14.8324V8.73342L60.278 9.02946V15.2268C60.2538 15.9751 60.3819 16.7205 60.6548 17.418C60.8737 17.9619 61.277 18.4123 61.7944 18.6911C62.3823 18.9785 63.0322 19.1174 63.6868 19.0954C64.2334 19.0991 64.7764 19.0091 65.2924 18.8293C65.8013 18.648 66.2817 18.3954 66.719 18.0789C66.8396 17.9924 66.9588 17.9006 67.0777 17.8052L67.0758 18.6606C67.0758 19.6475 66.8445 20.3975 66.3821 20.9107C65.9196 21.4239 65.1335 21.6804 64.0237 21.6804C63.7196 21.6804 63.4091 21.6672 63.0922 21.6406C62.7758 21.6146 62.4613 21.5685 62.1508 21.5028C61.8403 21.437 61.5264 21.3548 61.209 21.2561C60.8917 21.1574 60.5747 21.0423 60.2578 20.9107L60.4761 22.6673C60.7403 22.7722 61.0177 22.8676 61.3082 22.9535C61.5986 23.0395 61.8959 23.1119 62.2 23.1707C62.5039 23.2299 62.821 23.2759 63.1513 23.3088C63.4816 23.3417 63.8187 23.358 64.1624 23.3578C64.8793 23.3699 65.593 23.2599 66.2727 23.0325C66.848 22.8383 67.3774 22.5293 67.8285 22.1242C68.2498 21.7383 68.5785 21.2628 68.79 20.733C69.0141 20.1609 69.1252 19.551 69.1171 18.9369L69.0969 8.7321L67.0945 9.03014Z" fill="#9FDAF5"/>
<path d="M79.8175 9.12851C79.2352 8.83392 78.5874 8.6914 77.9347 8.71433C77.353 8.71422 76.7747 8.80403 76.2207 8.98049C75.6576 9.15876 75.121 9.41111 74.625 9.73086C74.4757 9.82659 74.3313 9.92822 74.189 10.0365V4.0957L72.1674 4.39178V18.9978H74.189V11.4132C74.3455 11.3277 74.5061 11.2461 74.6742 11.1717C74.9547 11.0484 75.2428 10.9429 75.5367 10.8559C75.8196 10.7722 76.1075 10.7063 76.3987 10.6585C76.6706 10.6135 76.9456 10.5904 77.2212 10.5895C77.5381 10.5828 77.8536 10.6329 78.1527 10.7375C78.4049 10.8282 78.63 10.981 78.807 11.1816C78.9889 11.3993 79.1175 11.656 79.1829 11.9316C79.268 12.2803 79.3082 12.6383 79.3025 12.9971V18.9974H81.3237V12.5826C81.3501 11.8343 81.2218 11.0886 80.9468 10.3917C80.723 9.85656 80.3254 9.41173 79.8175 9.12851Z" fill="#9FDAF5"/>
<path d="M92.0062 10.2046C91.6256 9.71346 91.1236 9.32911 90.5493 9.08905C89.9112 8.82992 89.2269 8.70244 88.538 8.71435C87.8437 8.70256 87.1549 8.83711 86.5165 9.10913C85.9359 9.36225 85.4182 9.7395 85.0004 10.2141C84.5699 10.713 84.2461 11.294 84.0488 11.9218C83.8229 12.6401 83.7126 13.3896 83.7221 14.1423C83.694 15.0933 83.8942 16.0373 84.3064 16.8957C84.6831 17.6395 85.2915 18.242 86.0405 18.6129C86.9195 19.0253 87.8839 19.2248 88.8551 19.1952C89.3222 19.199 89.7891 19.1693 90.2519 19.1064C90.6389 19.0507 91.0202 18.9616 91.3916 18.8399C91.7598 18.7167 92.1177 18.5649 92.4621 18.3859L92.6005 16.8661C92.3494 16.9582 92.0951 17.0503 91.8374 17.1424C91.5798 17.2345 91.3123 17.3168 91.0348 17.3891C90.755 17.4622 90.4701 17.5149 90.1826 17.5467C89.8931 17.5798 89.602 17.5964 89.3106 17.5964C88.7903 17.6048 88.271 17.5484 87.7648 17.4286C87.3564 17.3313 86.9785 17.1346 86.6651 16.8562C86.3484 16.5559 86.116 16.1782 85.9913 15.7608C85.8618 15.3379 85.7891 14.8999 85.7749 14.4581H92.9374C93.0349 13.6417 92.998 12.8149 92.8284 12.0103C92.689 11.3561 92.4085 10.74 92.0062 10.2046ZM87.012 10.6779C87.477 10.3969 88.0139 10.2565 88.5575 10.2736C89.1018 10.2465 89.6394 10.403 90.0835 10.7178C90.4782 11.0315 90.76 11.4644 90.8862 11.9514C90.985 12.3115 91.0337 12.6834 91.0309 13.0567H85.8186C85.8553 12.6631 85.9398 12.2754 86.0702 11.902C86.2395 11.4015 86.5707 10.9709 87.012 10.6779Z" fill="#9FDAF5"/>
<path d="M100.637 17.4085L100.3 17.4681C100.192 17.4873 100.083 17.5004 99.9733 17.5076C99.8673 17.5145 99.7681 17.5171 99.676 17.5171C99.3723 17.5255 99.0706 17.4647 98.7941 17.3394C98.5562 17.2274 98.3589 17.0448 98.2293 16.8167C98.0904 16.5592 98.0221 16.27 98.031 15.9779V10.5105H100.825L101.044 8.93143H98.031V5.81254L96.0096 6.52343V8.93143H94.4835L94.2652 10.5105H96.0096V16.3924C96.0006 16.7846 96.061 17.1753 96.188 17.5467C96.2899 17.8407 96.448 18.1123 96.6537 18.3464C96.8422 18.5548 97.0715 18.7227 97.3275 18.8398C97.5896 18.9595 97.8659 19.0456 98.1497 19.0961C98.4308 19.1479 98.716 19.1743 99.0018 19.1751C99.2132 19.1751 99.4215 19.1686 99.6265 19.1556C99.8315 19.1427 100.02 19.1229 100.191 19.0961C100.363 19.0698 100.525 19.0402 100.677 19.0076C100.829 18.975 100.957 18.9451 101.063 18.9185L101.182 17.2805C101.105 17.3102 101.025 17.3333 100.944 17.3496C100.852 17.369 100.749 17.3891 100.637 17.4085Z" fill="#9FDAF5"/>
<path d="M110.636 10.2046C110.255 9.71351 109.753 9.32916 109.179 9.08905C108.541 8.82991 107.857 8.70243 107.167 8.71435C106.473 8.70265 105.784 8.83719 105.146 9.10913C104.565 9.36233 104.048 9.73957 103.63 10.2141C103.199 10.7129 102.876 11.2938 102.679 11.9214C102.453 12.6398 102.342 13.3892 102.352 14.1419C102.324 15.093 102.524 16.0369 102.936 16.8954C103.313 17.6392 103.921 18.2417 104.67 18.6125C105.549 19.0249 106.514 19.2244 107.485 19.1948C107.952 19.1987 108.419 19.169 108.882 19.106C109.269 19.0504 109.65 18.9612 110.022 18.8396C110.39 18.7165 110.748 18.5647 111.092 18.3856L111.231 16.8658C110.979 16.9579 110.725 17.05 110.467 17.1421C110.21 17.2342 109.942 17.3164 109.665 17.3888C109.385 17.4619 109.1 17.5145 108.813 17.5464C108.523 17.5795 108.232 17.5961 107.941 17.5961C107.42 17.6044 106.901 17.5481 106.395 17.4283C105.986 17.3308 105.608 17.1342 105.295 16.8559C104.978 16.5554 104.746 16.1778 104.621 15.7605C104.492 15.3376 104.419 14.8996 104.405 14.4578H111.567C111.665 13.6414 111.628 12.8145 111.458 12.0099C111.319 11.3559 111.038 10.7399 110.636 10.2046ZM105.641 10.6779C106.106 10.3969 106.644 10.2564 107.187 10.2736C107.732 10.2466 108.269 10.4031 108.713 10.7178C109.108 11.0315 109.39 11.4644 109.516 11.9514C109.615 12.3114 109.664 12.6834 109.66 13.0567H104.448C104.485 12.6631 104.569 12.2754 104.7 11.902C104.869 11.4015 105.2 10.971 105.641 10.6779Z" fill="#9FDAF5"/>
<path d="M118.186 8.86208C117.815 8.961 117.462 9.11398 117.136 9.31605C116.798 9.52617 116.485 9.77454 116.204 10.0562C116.158 10.1026 116.112 10.1549 116.065 10.2039V8.73345L114.044 9.02949V18.9971H116.065V11.5405C116.216 11.4361 116.371 11.3393 116.531 11.2504C116.73 11.1416 116.935 11.046 117.146 10.9641C117.35 10.8847 117.558 10.8157 117.77 10.7569C117.987 10.6965 118.209 10.6536 118.434 10.6286C118.674 10.6021 118.916 10.5954 119.157 10.6085L119.395 8.75349C118.989 8.72443 118.58 8.76111 118.186 8.86208Z" fill="#9FDAF5"/>
</svg>

<svg xmlns="http://www.w3.org/2000/svg" viewBox="0 0 120 24"><path fill="#fff" d="M0 18.997v-14h4.593v14H0ZM10.843 7.226l2.641 11.77H8.457L5.303 4.999h2.82a2.655 2.655 0 0 1 1.764.64c.491.404.829.965.956 1.588Zm3.331 11.77V4.999h4.594v13.999h-4.594Zm8.063-8.675a2.736 2.736 0 0 1-1.409-.374 2.778 2.778 0 0 1-1.015-1.016 2.735 2.735 0 0 1-.375-1.41 2.685 2.685 0 0 1 .375-1.4 2.812 2.812 0 0 1 3.824-1.005c.415.245.761.59 1.005 1.006.251.423.38.908.375 1.4.005.495-.125.982-.375 1.41a2.8 2.8 0 0 1-1.005 1.015c-.424.25-.908.38-1.4.374Zm3.49 8.676v-14h4.594v14h-4.594Zm10.409-6.35c.013.014.111.175.296.484.184.308.424.703.72 1.183a384.573 384.573 0 0 1 1.862 3.056c.289.48.617 1.022.986 1.627h-5.047l-.858-1.39c-.256-.414-.529-.861-.817-1.341a118.3 118.3 0 0 0-.858-1.4 71.148 71.148 0 0 1-.73-1.193 21.119 21.119 0 0 0-.424-.69 2.04 2.04 0 0 1-.334-.986c.019-.338.128-.664.315-.946.078-.132.223-.365.433-.7a216.7 216.7 0 0 0 1.598-2.603l.817-1.35.858-1.4H40l-3.904 6.368c-.12.19-.189.407-.197.631.013.236.095.462.236.65h.001Z"/><path fill="#9FDAF5" d="M55.362 15.646 46.939 4.984h-1.606v14.014h1.863V8.33l8.443 10.668h1.606V4.984h-1.883v10.662ZM67.094 9.03l-.015 7.392a9.557 9.557 0 0 1-.43.237 6.61 6.61 0 0 1-.743.325c-.24.09-.49.156-.743.197-.259.041-.52.061-.782.06a2.363 2.363 0 0 1-1.17-.257 1.576 1.576 0 0 1-.683-.8 3.506 3.506 0 0 1-.229-1.352V8.733l-2.021.296v6.198a5.523 5.523 0 0 0 .377 2.191c.219.544.622.994 1.14 1.273a4.003 4.003 0 0 0 1.892.404 4.78 4.78 0 0 0 1.605-.266 5.69 5.69 0 0 0 1.427-.75c.12-.087.24-.178.359-.274l-.002.856c0 .986-.231 1.736-.694 2.25-.462.513-1.249.77-2.358.77-.304 0-.615-.014-.932-.04a7.526 7.526 0 0 1-.941-.138 10.509 10.509 0 0 1-1.893-.592l.218 1.756a9.734 9.734 0 0 0 2.675.642c.33.033.668.049 1.011.049a6.316 6.316 0 0 0 2.11-.326 4.466 4.466 0 0 0 1.556-.908c.422-.386.75-.861.962-1.391a4.752 4.752 0 0 0 .327-1.796l-.02-10.205-2.002.298ZM79.817 9.129a3.87 3.87 0 0 0-1.882-.415c-.582 0-1.16.09-1.714.266a6.648 6.648 0 0 0-2.032 1.056v-5.94l-2.022.296v14.606h2.022v-7.585a6.484 6.484 0 0 1 1.348-.557c.283-.084.57-.15.862-.197a5.14 5.14 0 0 1 .822-.07c.317-.006.633.044.932.149.252.09.477.243.654.444.182.217.31.474.376.75.085.348.125.706.12 1.065v6h2.02v-6.414a5.445 5.445 0 0 0-.376-2.191 2.592 2.592 0 0 0-1.13-1.263ZM92.006 10.205a3.599 3.599 0 0 0-1.457-1.116 5.111 5.111 0 0 0-2.011-.375 4.943 4.943 0 0 0-2.022.395A4.32 4.32 0 0 0 85 10.214a4.831 4.831 0 0 0-.951 1.708 7.103 7.103 0 0 0-.327 2.22 5.954 5.954 0 0 0 .584 2.754 3.866 3.866 0 0 0 1.734 1.717 6.183 6.183 0 0 0 2.815.582c.467.004.934-.026 1.397-.089a6.746 6.746 0 0 0 2.21-.72l.138-1.52a97.71 97.71 0 0 1-.763.276 9.49 9.49 0 0 1-.802.247c-.28.073-.565.126-.852.158-.29.033-.581.05-.872.05a6.273 6.273 0 0 1-1.546-.168 2.544 2.544 0 0 1-1.1-.573c-.317-.3-.549-.678-.674-1.095a4.997 4.997 0 0 1-.216-1.303h7.162a7.535 7.535 0 0 0-.109-2.448 4.602 4.602 0 0 0-.822-1.805Zm-4.994.473a2.817 2.817 0 0 1 1.546-.404 2.43 2.43 0 0 1 1.525.444c.395.313.677.746.803 1.233.099.36.148.732.145 1.106h-5.212c.036-.394.12-.782.251-1.155.17-.5.5-.931.942-1.224ZM100.637 17.409l-.337.06c-.108.018-.217.031-.327.039-.106.007-.205.01-.297.01a2.003 2.003 0 0 1-.882-.179 1.273 1.273 0 0 1-.565-.522 1.66 1.66 0 0 1-.198-.84v-5.466h2.794l.219-1.58h-3.013V5.813l-2.021.71v2.408h-1.526l-.219 1.58h1.745v5.881c-.01.393.051.783.178 1.155.102.294.26.565.466.8.188.208.418.376.674.493.262.12.538.206.822.256.28.052.566.078.852.08.211 0 .42-.007.624-.02.206-.013.394-.033.565-.06.172-.026.334-.056.486-.088.152-.033.28-.063.386-.09l.119-1.637c-.077.03-.157.052-.238.069-.092.019-.195.04-.307.058ZM110.636 10.205a3.605 3.605 0 0 0-1.457-1.116 5.11 5.11 0 0 0-2.012-.375 4.943 4.943 0 0 0-2.021.395 4.32 4.32 0 0 0-1.516 1.105 4.816 4.816 0 0 0-.951 1.707 7.086 7.086 0 0 0-.327 2.22 5.958 5.958 0 0 0 .584 2.754 3.867 3.867 0 0 0 1.734 1.718 6.186 6.186 0 0 0 2.815.582c.467.004.934-.026 1.397-.089a6.763 6.763 0 0 0 2.21-.72l.139-1.52c-.252.092-.506.184-.764.276a9.501 9.501 0 0 1-.802.247c-.28.073-.565.126-.852.157-.29.034-.581.05-.872.05a6.274 6.274 0 0 1-1.546-.168 2.542 2.542 0 0 1-1.1-.572 2.496 2.496 0 0 1-.674-1.096 5.01 5.01 0 0 1-.216-1.302h7.162a7.51 7.51 0 0 0-.109-2.448 4.6 4.6 0 0 0-.822-1.805Zm-4.995.473a2.82 2.82 0 0 1 1.546-.404 2.43 2.43 0 0 1 1.526.444c.395.313.677.746.803 1.233.099.36.148.732.144 1.106h-5.212a4.86 4.86 0 0 1 .252-1.155c.169-.5.5-.931.941-1.224ZM118.186 8.862a3.897 3.897 0 0 0-1.05.454c-.338.21-.651.459-.932.74-.046.047-.092.099-.139.148v-1.47l-2.021.295v9.968h2.021V11.54a5.214 5.214 0 0 1 1.081-.576c.204-.08.412-.148.624-.207a4.21 4.21 0 0 1 1.387-.149l.238-1.855a3.786 3.786 0 0 0-1.209.11Z"/></svg>
